dist/static/img/svg/ic_link.svg

<svg width="24" height="24" viewBox="0 0 24 24" fill="none" xmlns="http://www.w3.org/2000/svg">
<path d="M11 12.6053C11.2877 13.0046 11.6547 13.3351 12.0761 13.5742C12.4975 13.8133 12.9636 13.9555 13.4426 13.9911C13.9216 14.0267 14.4024 13.955 14.8523 13.7807C15.3023 13.6064 15.7109 13.3336 16.0504 12.9809L18.0599 10.8941C18.6699 10.2382 19.0075 9.35963 18.9999 8.44773C18.9922 7.53582 18.64 6.66351 18.0191 6.01867C17.3981 5.37383 16.5581 5.00806 15.68 5.00013C14.8019 4.99221 13.9559 5.34276 13.3243 5.9763L12.1722 7.16576" stroke="#1F5AFF" stroke-width="2" stroke-linecap="round" stroke-linejoin="round"/>
<path d="M13 11.3947C12.7123 10.9954 12.3453 10.6649 11.9239 10.4258C11.5025 10.1867 11.0364 10.0445 10.5574 10.0089C10.0784 9.97326 9.59761 10.045 9.14765 10.2193C8.6977 10.3936 8.2891 10.6664 7.94958 11.0191L5.94013 13.1059C5.33006 13.7618 4.9925 14.6404 5.00013 15.5523C5.00776 16.4642 5.35998 17.3365 5.98092 17.9813C6.60187 18.6262 7.44186 18.9919 8.31998 18.9999C9.1981 19.0078 10.0441 18.6572 10.6757 18.0237L11.8211 16.8342" stroke="#1F5AFF" stroke-width="2" stroke-linecap="round" stroke-linejoin="round"/>
</svg>

<svg width="24" height="24" viewBox="0 0 24 24" fill="none" xmlns="http://www.w3.org/2000/svg"><path d="M11 12.605c.288.4.655.73 1.076.97a3.236 3.236 0 002.776.207c.45-.176.859-.448 1.198-.801l2.01-2.087A3.55 3.55 0 0019 8.448a3.547 3.547 0 00-.98-2.43A3.289 3.289 0 0015.68 5a3.284 3.284 0 00-2.356.976l-1.152 1.19" stroke="#1F5AFF" stroke-width="2" stroke-linecap="round" stroke-linejoin="round"/><path d="M13 11.395a3.39 3.39 0 00-1.076-.97 3.235 3.235 0 00-2.776-.207c-.45.176-.859.448-1.198.801l-2.01 2.087A3.55 3.55 0 005 15.552c.008.912.36 1.785.98 2.43A3.296 3.296 0 008.32 19a3.284 3.284 0 002.356-.976l1.145-1.19" stroke="#1F5AFF" stroke-width="2" stroke-linecap="round" stroke-linejoin="round"/></svg>
